X: 36557
T: Seven Waves
R: jig
M: 6/8
K: Gmajor
|:gdB GBd|cAA ABc|BAG GAB|BAG ABd|
gdB GBd|cAA ABc|d2 e f2 g|1 agf g2 f:|2 agf g2 d||
|:g2 a bgd|f2 g afd|gfe Beg|fed ega|
b2 g dgb|a2 f dfa|gfe def|agf g2 d:|

